X:46
T:Gan Ainm
C:Traditional
D:"Traffic" by Lia Luachra
Z:Transcribed by Lionel Gueganton
R:reel
L:1/8
M:4/4
K:Ddor
|: DF ED ^CE AE | FA AA GA _BG | Ad dd fd ed | cA FD GF EF
|  DF ED ^CE AE | FA AA GA _BG | Ad dd cA FD | GF EF EE D2 :|
|: FG AF GF EG  | cG Ac de fg  | ad dd ge ee | fe df ed cA
|  FG AF GF EG  | cG Ac de fg  | ff ed ce dc | AA GF EE D2 :|

